assets/img/braze_icons/music-note-02.svg

<svg fill="none" height="24" viewBox="0 0 24 24" width="24" xmlns="http://www.w3.org/2000/svg"><path clip-rule="evenodd" d="m14.7259 3.24492c-.3516-.17585-.6742-.3372-.948-.44416-.282-.11015-.654-.22276-1.0702-.16127-.5442.08041-1.0313.38144-1.3466.83224-.2412.34479-.3068.72782-.3344 1.02932-.0268.29275-.0267.6535-.0267 1.04662v8.98743c-.5883-.3403-1.27142-.5351-2-.5351-2.20914 0-4 1.7909-4 4s1.79086 4 4 4c2.2081 0 3.9983-1.7891 4-3.9968v-.0032-12.41116c0-.44812.001-.71529.0184-.90549l.0031-.03061.0287.01095c.1779.0695.4173.18809.8181.38849l3.6845 1.84223c.494.24699 1.0946.04676 1.3416-.44721.247-.49398.0468-1.09466-.4472-1.34165z" fill="#801ed7" fill-rule="evenodd"/></svg>

<svg width="24" height="24" viewBox="0 0 24 24" fill="none" xmlns="http://www.w3.org/2000/svg">
<path fill-rule="evenodd" clip-rule="evenodd" d="M14.7259 3.24492C14.3743 3.06907 14.0517 2.90772 13.7779 2.80076C13.4959 2.69061 13.1239 2.578 12.7077 2.63949C12.1635 2.7199 11.6764 3.02093 11.3611 3.47173C11.1199 3.81652 11.0543 4.19955 11.0267 4.50105C10.9999 4.7938 11 5.15455 11 5.54767L11 14.5351C10.4117 14.1948 9.72858 14 9 14C6.79086 14 5 15.7909 5 18C5 20.2091 6.79086 22 9 22C11.2081 22 12.9983 20.2109 13 18.0032L13 18V5.58884C13 5.14072 13.001 4.87355 13.0184 4.68335L13.0215 4.65274L13.0502 4.66369C13.2281 4.73319 13.4675 4.85178 13.8683 5.05218L17.5528 6.89441C18.0468 7.1414 18.6474 6.94117 18.8944 6.4472C19.1414 5.95322 18.9412 5.35254 18.4472 5.10555L14.7259 3.24492Z" fill="#801ED7"/>
</svg>
